_icons/SVG/167-spinarak-shiny.svg

<svg xmlns="http://www.w3.org/2000/svg" width="32" height="32"><path fill="#8EC0E0" d="M16 2.75v17.702c-5.937 0-10.75-3.963-10.75-8.851S10.063 2.75 16 2.75z"/><path fill="#EAB5D7" d="M8.709 16.375c-.559.059-4.562 1.25-5.25 1.625s-3.198 5.222-2.312 5.812c.938.625 3.125-3.312 4.375-3.625s3.573-1.075 4-1.188c1.187-.311.375-2.749-.813-2.624z"/><path fill="#3A4274" d="M5.707 17.2c-1.007.314-1.946.636-2.248.8-.261.142-.783.927-1.284 1.879.91.621 1.326 1.038 1.725 1.684.594-.674 1.169-1.262 1.621-1.375a43.09 43.09 0 001.914-.548c-1.017-.39-1.434-1.473-1.728-2.44z"/><path fill="#EAB5D7" d="M6.647 12.875c-.562 0-3.108.663-4.062.875C1.46 14-.676 18.347.21 18.938c.938.625 2.41-2.638 3.687-2.812 1.375-.188 3.123-.58 3.563-.626 1.188-.125.813-2.625-.813-2.625z"/><path fill="#3A4274" d="M4.502 13.294c-.744.176-1.49.361-1.917.456-.395.088-.914.68-1.383 1.437.592.854.925 1.271 1.144 2.15.518-.599 1.049-1.144 1.551-1.212.383-.052.795-.12 1.199-.192a5.334 5.334 0 01-.594-2.639z"/><path fill="#EAB5D7" d="M6.147 9.438c-.562 0-1.949-.239-2.687-.062-1.121.268-3.213 3.344-2.29 3.875.978.562 1.627-1.625 2.915-1.625.603 0 2.06.296 2.5.25 1.188-.126 1.188-2.438-.438-2.438z"/><path fill="#3A4274" d="M5.585 9.402c-.282-.025-.612-.058-.939-.077-.437-.025-.871-.025-1.186.05-.42.1-.977.596-1.461 1.204.627.63.794.88 1.189 1.406.267-.211.56-.36.896-.36.119 0 .272.012.443.03.181.019.384.046.591.074-.075-.562-.158-1.521.467-2.327z"/><path fill="#B0D3EA" d="M16 15.583v10.583c-3.899 0-7.059-2.369-7.059-5.292 0-2.922 3.16-5.291 7.059-5.291z"/><path fill="#F3586F" d="M14 24.75c.766 0 1.25.417 1.25 1.5 0 .833-.666 1-.666 1.655 0 .504.197.813.405 1.136.059.091-.039.22-.147.207-.842-.096-2.342-.981-2.342-2.498 0-1.396.625-2 1.5-2z"/><circle fill="#373F3F" cx="10.687" cy="21.75" r="2.187"/><path fill="#FFF" d="M11.75 21.75a1.062 1.062 0 10-2.124 0 1.062 1.062 0 002.124 0z"/><path fill="#7FB8E0" d="M26.75 11.601c0 4.888-4.813 8.851-10.75 8.851V2.75c5.937 0 10.75 3.963 10.75 8.851z"/><path fill="#E2A1C8" d="M23.291 16.375c.559.059 4.562 1.25 5.25 1.625s3.198 5.222 2.312 5.812c-.938.625-3.125-3.312-4.375-3.625s-3.573-1.075-4-1.188c-1.187-.311-.375-2.749.813-2.624z"/><path fill="#313D68" d="M26.293 17.2c1.007.314 1.947.636 2.248.8.261.142.783.927 1.284 1.879-.909.621-1.326 1.037-1.725 1.683-.594-.674-1.169-1.262-1.621-1.375a43.09 43.09 0 01-1.914-.548c1.017-.389 1.434-1.472 1.728-2.439z"/><path fill="#E2A1C8" d="M25.353 12.875c.562 0 3.108.663 4.062.875 1.125.25 3.261 4.597 2.375 5.188-.938.625-2.41-2.638-3.687-2.812-1.376-.188-3.124-.579-3.563-.625-1.188-.126-.813-2.626.813-2.626z"/><path fill="#313D68" d="M27.498 13.294c.744.176 1.49.361 1.917.456.395.088.914.68 1.383 1.437-.592.854-.925 1.271-1.144 2.15-.518-.599-1.049-1.144-1.551-1.212-.383-.052-.795-.12-1.199-.192.22-.433.636-1.35.594-2.639z"/><path fill="#E2A1C8" d="M25.853 9.438c.562 0 1.949-.239 2.688-.062 1.121.268 3.213 3.344 2.29 3.875-.978.562-1.627-1.625-2.915-1.625-.603 0-2.06.296-2.5.25-1.189-.126-1.189-2.438.437-2.438z"/><path fill="#313D68" d="M26.415 9.402c.661-.059 1.574-.159 2.126-.027.42.1.977.596 1.461 1.204-.627.63-.794.88-1.189 1.406-.267-.211-.56-.36-.896-.36-.245 0-.632.049-1.034.104.074-.562.157-1.521-.468-2.327z"/><path fill="#9FC9E4" d="M23.059 20.875c0 2.922-3.161 5.292-7.059 5.292V15.583c3.899 0 7.059 2.369 7.059 5.292z"/><path fill="#E85160" d="M18.312 24.75c-.766 0-1.25.417-1.25 1.5 0 .833.666 1 .666 1.655 0 .504-.197.813-.405 1.136-.059.091.039.22.147.207.844-.097 2.343-.983 2.343-2.499-.001-1.395-.625-1.999-1.501-1.999z"/><circle fill="#2B3332" cx="21.312" cy="21.75" r="2.188"/><circle fill="#F7F7F7" cx="21.312" cy="21.75" r="1.062"/><path fill="#FFF" d="M16 16.292c-.671 0-1.75 2.542-1.833 2.875-.084.333 1.174.708 1.833.708v-3.583z"/><path fill="#F7F7F7" d="M16 16.292c.659 0 1.75 2.542 1.833 2.875.083.333-1.163.708-1.833.708v-3.583z"/><path fill="#313D68" d="M16 3.961V2.75c3.541 0 6.683 1.41 8.641 3.585-1.126-.808-4.633-2.374-8.641-2.374zm5.021 2.881c-.79 0-1.43.495-1.43 1.106s.64 1.106 1.43 1.106 1.43-.495 1.43-1.106-.641-1.106-1.43-1.106zm.457 5.607c-1.089-1.088-3.341-1.848-5.478-1.848v1.5c1.954 0 3.734.726 4.417 1.408a.748.748 0 001.06 0 .748.748 0 00.001-1.06z"/><path fill="#3A4274" d="M7.359 6.335C9.317 4.16 12.459 2.75 16 2.75v1.211c-4.008 0-7.515 1.566-8.641 2.374zm2.19 1.613c0 .611.64 1.106 1.43 1.106s1.43-.495 1.43-1.106-.64-1.106-1.43-1.106-1.43.495-1.43 1.106zM16 10.601c-2.137 0-4.389.76-5.478 1.848a.75.75 0 001.06 1.061c.683-.683 2.463-1.408 4.417-1.408v-1.501z"/></svg>

<?xml version="1.0" encoding="utf-8"?>
<!-- Generator: Adobe Illustrator 23.0.6, SVG Export Plug-In . SVG Version: 6.00 Build 0)  -->
<svg version="1.1" xmlns="http://www.w3.org/2000/svg" xmlns:xlink="http://www.w3.org/1999/xlink" x="0px" y="0px" width="32px"
	 height="32px" viewBox="0 0 32 32" enable-background="new 0 0 32 32" xml:space="preserve">
<g id="labels">
	<g>
	</g>
</g>
<g id="icons">
	<g>
		<path fill="#8EC0E0" d="M16,2.75v17.702c-5.937,0-10.75-3.963-10.75-8.851S10.063,2.75,16,2.75z"/>
		<g>
			<path fill="#EAB5D7" d="M8.709,16.375C8.15,16.434,4.147,17.625,3.459,18s-3.198,5.222-2.312,5.812
				c0.938,0.625,3.125-3.312,4.375-3.625s3.573-1.075,4-1.188C10.709,18.688,9.897,16.25,8.709,16.375z"/>
			<path fill="#3A4274" d="M5.707,17.2C4.7,17.514,3.761,17.836,3.459,18c-0.261,0.142-0.783,0.927-1.284,1.879
				C3.085,20.5,3.501,20.917,3.9,21.563c0.594-0.674,1.169-1.262,1.621-1.375c0.523-0.131,1.233-0.34,1.914-0.548
				C6.418,19.25,6.001,18.167,5.707,17.2z"/>
			<path fill="#EAB5D7" d="M6.647,12.875c-0.562,0-3.108,0.663-4.062,0.875C1.46,14-0.676,18.347,0.21,18.938
				c0.938,0.625,2.41-2.638,3.687-2.812C5.272,15.938,7.02,15.546,7.46,15.5C8.648,15.375,8.273,12.875,6.647,12.875z"/>
			<path fill="#3A4274" d="M4.502,13.294c-0.744,0.176-1.49,0.361-1.917,0.456c-0.395,0.088-0.914,0.68-1.383,1.437
				c0.592,0.854,0.925,1.271,1.144,2.15c0.518-0.599,1.049-1.144,1.551-1.212c0.383-0.052,0.795-0.12,1.199-0.192
				C4.876,15.5,4.46,14.583,4.502,13.294z"/>
			<path fill="#EAB5D7" d="M6.147,9.438c-0.562,0-1.949-0.239-2.687-0.062c-1.121,0.268-3.213,3.344-2.29,3.875
				c0.978,0.562,1.627-1.625,2.915-1.625c0.603,0,2.06,0.296,2.5,0.25C7.773,11.75,7.773,9.438,6.147,9.438z"/>
			<path fill="#3A4274" d="M5.585,9.402C5.303,9.377,4.973,9.344,4.646,9.325C4.209,9.3,3.775,9.3,3.46,9.375
				c-0.42,0.1-0.977,0.596-1.461,1.204c0.627,0.63,0.794,0.88,1.189,1.406c0.267-0.211,0.56-0.36,0.896-0.36
				c0.119,0,0.272,0.012,0.443,0.03c0.181,0.019,0.384,0.046,0.591,0.074C5.043,11.167,4.96,10.208,5.585,9.402z"/>
		</g>
		<path fill="#B0D3EA" d="M16,15.583v10.583c-3.899,0-7.059-2.369-7.059-5.292C8.941,17.952,12.101,15.583,16,15.583z"/>
		<path fill="#F3586F" d="M14,24.75c0.766,0,1.25,0.417,1.25,1.5c0,0.833-0.666,1-0.666,1.655c0,0.504,0.197,0.813,0.405,1.136
			c0.059,0.091-0.039,0.22-0.147,0.207C14,29.152,12.5,28.267,12.5,26.75C12.5,25.354,13.125,24.75,14,24.75z"/>
		<circle fill="#373F3F" cx="10.687" cy="21.75" r="2.187"/>
		<path fill="#FFFFFF" d="M11.75,21.75c0-0.587-0.476-1.062-1.063-1.062c-0.587,0-1.062,0.476-1.062,1.062s0.476,1.062,1.062,1.062
			C11.274,22.812,11.75,22.337,11.75,21.75z"/>
		<path fill="#7FB8E0" d="M26.75,11.601c0,4.888-4.813,8.851-10.75,8.851V2.75C21.937,2.75,26.75,6.713,26.75,11.601z"/>
		<g>
			<path fill="#E2A1C8" d="M23.291,16.375c0.559,0.059,4.562,1.25,5.25,1.625s3.198,5.222,2.312,5.812
				c-0.938,0.625-3.125-3.312-4.375-3.625s-3.573-1.075-4-1.188C21.291,18.688,22.103,16.25,23.291,16.375z"/>
			<path fill="#313D68" d="M26.293,17.2c1.007,0.314,1.947,0.636,2.248,0.8c0.261,0.142,0.783,0.927,1.284,1.879
				c-0.909,0.621-1.326,1.037-1.725,1.683c-0.594-0.674-1.169-1.262-1.621-1.375c-0.523-0.131-1.233-0.34-1.914-0.548
				C25.582,19.25,25.999,18.167,26.293,17.2z"/>
			<path fill="#E2A1C8" d="M25.353,12.875c0.562,0,3.108,0.663,4.062,0.875c1.125,0.25,3.261,4.597,2.375,5.188
				c-0.938,0.625-2.41-2.638-3.687-2.812c-1.376-0.188-3.124-0.579-3.563-0.625C23.352,15.375,23.727,12.875,25.353,12.875z"/>
			<path fill="#313D68" d="M27.498,13.294c0.744,0.176,1.49,0.361,1.917,0.456c0.395,0.088,0.914,0.68,1.383,1.437
				c-0.592,0.854-0.925,1.271-1.144,2.15c-0.518-0.599-1.049-1.144-1.551-1.212c-0.383-0.052-0.795-0.12-1.199-0.192
				C27.124,15.5,27.54,14.583,27.498,13.294z"/>
			<path fill="#E2A1C8" d="M25.853,9.438c0.562,0,1.949-0.239,2.688-0.062c1.121,0.268,3.213,3.344,2.29,3.875
				c-0.978,0.562-1.627-1.625-2.915-1.625c-0.603,0-2.06,0.296-2.5,0.25C24.227,11.75,24.227,9.438,25.853,9.438z"/>
			<path fill="#313D68" d="M26.415,9.402c0.661-0.059,1.574-0.159,2.126-0.027c0.42,0.1,0.977,0.596,1.461,1.204
				c-0.627,0.63-0.794,0.88-1.189,1.406c-0.267-0.211-0.56-0.36-0.896-0.36c-0.245,0-0.632,0.049-1.034,0.104
				C26.957,11.167,27.04,10.208,26.415,9.402z"/>
		</g>
		<path fill="#9FC9E4" d="M23.059,20.875c0,2.922-3.161,5.292-7.059,5.292V15.583C19.899,15.583,23.059,17.952,23.059,20.875z"/>
		<path fill="#E85160" d="M18.312,24.75c-0.766,0-1.25,0.417-1.25,1.5c0,0.833,0.666,1,0.666,1.655c0,0.504-0.197,0.813-0.405,1.136
			c-0.059,0.091,0.039,0.22,0.147,0.207c0.844-0.097,2.343-0.983,2.343-2.499C19.812,25.354,19.188,24.75,18.312,24.75z"/>
		<circle fill="#2B3332" cx="21.312" cy="21.75" r="2.188"/>
		<circle fill="#F7F7F7" cx="21.312" cy="21.75" r="1.062"/>
		<path fill="#FFFFFF" d="M16,16.292c-0.671,0-1.75,2.542-1.833,2.875C14.083,19.5,15.341,19.875,16,19.875V16.292z"/>
		<path fill="#F7F7F7" d="M16,16.292c0.659,0,1.75,2.542,1.833,2.875c0.083,0.333-1.163,0.708-1.833,0.708V16.292z"/>
		<path fill="#313D68" d="M16,3.961V2.75c3.541,0,6.683,1.41,8.641,3.585C23.515,5.527,20.008,3.961,16,3.961z M21.021,6.842
			c-0.79,0-1.43,0.495-1.43,1.106s0.64,1.106,1.43,1.106s1.43-0.495,1.43-1.106S21.81,6.842,21.021,6.842z M21.478,12.449
			c-1.089-1.088-3.341-1.848-5.478-1.848v1.5c1.954,0,3.734,0.726,4.417,1.408c0.146,0.146,0.338,0.22,0.53,0.22
			s0.384-0.073,0.53-0.22C21.771,13.216,21.771,12.741,21.478,12.449z"/>
		<path fill="#3A4274" d="M7.359,6.335C9.317,4.16,12.459,2.75,16,2.75v1.211C11.992,3.961,8.485,5.527,7.359,6.335z M9.549,7.948
			c0,0.611,0.64,1.106,1.43,1.106s1.43-0.495,1.43-1.106s-0.64-1.106-1.43-1.106S9.549,7.337,9.549,7.948z M16,10.601
			c-2.137,0-4.389,0.76-5.478,1.848c-0.293,0.292-0.293,0.768,0,1.061c0.146,0.146,0.338,0.22,0.53,0.22
			c0.191,0,0.384-0.073,0.53-0.22c0.683-0.683,2.463-1.408,4.417-1.408V10.601z"/>
	</g>
</g>
</svg>
